data/styles/clear/style-night/symbols/jewish-m.svg

<svg height="24" viewBox="0 0 24 24" width="24"><g fill="none" fill-rule="evenodd"><circle cx="12" cy="12" fill="#fff" opacity=".4" r="12"/><circle cx="12" cy="12" fill="#4d361f" r="11"/><path d="m15.972885 11.8807242 2.0156548-3.45899896c.0292124-.02981896 0-.08945687-.0584247-.08945687h-3.8852478c-.0292124 0-.0292124 0-.0584248-.02981896l-1.7819558-3.28008519c-.0292124-.02981896-.0876371-.02981896-.0876371 0l-1.8988054 3.28008519c0 .02981896-.0292123.02981896-.0584247.02981896h-4.06052217c-.05842478 0-.05842478.05963791-.05842478.08945687l1.98644248 3.63791266v.0596379l-2.01565487 3.458999c-.02921239.0298189 0 .0894568.05842478.0894568h3.8852478c.02921239 0 .02921239 0 .05842476.029819l1.7819558 3.2800852c.0292124.0298189.0876371.0298189.0876371 0l1.8988054-3.2800852c0-.029819.0292123-.029819.0584247-.029819h4.0605222c.0584247 0 .0584247-.0596379.0584247-.0894568l-1.9864424-3.6379127zm.6426725-2.65388714-1.0224336 1.78913734c-.0292124.029819-.0876372.029819-.0876372 0l-.9640088-1.78913734c-.0292124-.02981896 0-.08945687.0584248-.08945687h2.0156548c-.0292124 0 0 .05963791 0 .08945687zm-1.577469 2.71352504-1.6651062 2.8924388c0 .0298189-.0292124.0298189-.0584248.0298189h-2.8336018c-.0292123 0-.0292123 0-.0584247-.0298189l-1.4606195-2.7135251v-.0596379l1.6651062-2.89243875c0-.02981896.0292124-.02981896.0584248-.02981896h2.8336018c.0292123 0 .0292123 0 .0584247.02981896l1.4606195 2.71352505c.0292124 0 .0292124.0298189 0 .0596379zm-2.8628142-5.30777424.8763717 1.61022364c.0292124.02981896 0 .08945687-.0584248.08945687h-1.8111681c-.0584248 0-.0876372-.05963791-.0584248-.08945687l.9640089-1.61022364c.0292124-.02981896.0876371-.02981896.0876371 0zm-4.76161944 2.50479233h2.22014159c.05842478 0 .08763717.05963791.05842478.08945687l-1.13928319 1.96805114c-.02921239.0298189-.08763716.0298189-.08763716 0l-1.08085841-1.96805114c-.02921239-.02981896 0-.08945687.02921239-.08945687zm-.02921239 5.63578271 1.02243363-1.7891373c.02921239-.029819.08763717-.029819.08763717 0l.96400885 1.7891373c.02921239.029819 0 .0894569-.05842478.0894569h-1.95723009c-.02921239 0-.05842478-.0596379-.05842478-.0894569zm4.44028323 2.5942492-.8763717-1.6102236c-.0292124-.029819 0-.0894569.0584248-.0894569h1.8111681c.0584248 0 .0876372.0596379.0584248.0894569l-.9640089 1.6102236c-.0292124.029819-.0876371.029819-.0876371 0zm3.7391858-4.5623003 1.0808584 1.9680511c.0292124.029819 0 .0894569-.0584248.0894569h-2.2201416c-.0584247 0-.0876371-.0596379-.0584247-.0894569l1.1392832-1.9680511c.0292123-.0298189.0876371-.0298189.1168495 0z" fill="#fff" opacity=".6"/></g></svg>

<svg width="24" height="24" viewBox="0 0 24 24">
  <g fill="none" fill-rule="evenodd">
    <circle cx="12" cy="12" r="12" fill="#FFF" opacity=".4"/>
    <circle cx="12" cy="12" r="11" fill="#4C351E"/>
    <path fill="#FFF" d="M15.972885,11.8807242 L17.9885398,8.42172524 C18.0177522,8.39190628 17.9885398,8.33226837 17.9301151,8.33226837 L14.0448673,8.33226837 C14.0156549,8.33226837 14.0156549,8.33226837 13.9864425,8.30244941 L12.2044867,5.02236422 C12.1752743,4.99254526 12.1168496,4.99254526 12.1168496,5.02236422 L10.2180442,8.30244941 C10.2180442,8.33226837 10.1888319,8.33226837 10.1596195,8.33226837 L6.09909733,8.33226837 C6.04067255,8.33226837 6.04067255,8.39190628 6.04067255,8.42172524 L8.02711503,12.0596379 L8.02711503,12.1192758 L6.01146016,15.5782748 C5.98224777,15.6080937 6.01146016,15.6677316 6.06988494,15.6677316 L9.95513274,15.6677316 C9.98434513,15.6677316 9.98434513,15.6677316 10.0135575,15.6975506 L11.7955133,18.9776358 C11.8247257,19.0074547 11.8831504,19.0074547 11.8831504,18.9776358 L13.7819558,15.6975506 C13.7819558,15.6677316 13.8111681,15.6677316 13.8403805,15.6677316 L17.9009027,15.6677316 C17.9593274,15.6677316 17.9593274,15.6080937 17.9593274,15.5782748 L15.972885,11.9403621 L15.972885,11.8807242 L15.972885,11.8807242 Z M16.6155575,9.22683706 L15.5931239,11.0159744 C15.5639115,11.0457934 15.5054867,11.0457934 15.5054867,11.0159744 L14.5414779,9.22683706 C14.5122655,9.1970181 14.5414779,9.13738019 14.5999027,9.13738019 L16.6155575,9.13738019 C16.5863451,9.13738019 16.6155575,9.1970181 16.6155575,9.22683706 L16.6155575,9.22683706 Z M15.0380885,11.9403621 L13.3729823,14.8328009 C13.3729823,14.8626198 13.3437699,14.8626198 13.3145575,14.8626198 L10.4809557,14.8626198 C10.4517434,14.8626198 10.4517434,14.8626198 10.422531,14.8328009 L8.9619115,12.1192758 L8.9619115,12.0596379 L10.6270177,9.16719915 C10.6270177,9.13738019 10.6562301,9.13738019 10.6854425,9.13738019 L13.5190443,9.13738019 C13.5482566,9.13738019 13.5482566,9.13738019 13.577469,9.16719915 L15.0380885,11.8807242 C15.0673009,11.8807242 15.0673009,11.9105431 15.0380885,11.9403621 L15.0380885,11.9403621 Z M12.1752743,6.63258786 L13.051646,8.2428115 C13.0808584,8.27263046 13.051646,8.33226837 12.9932212,8.33226837 L11.1820531,8.33226837 C11.1236283,8.33226837 11.0944159,8.27263046 11.1236283,8.2428115 L12.0876372,6.63258786 C12.1168496,6.6027689 12.1752743,6.6027689 12.1752743,6.63258786 L12.1752743,6.63258786 Z M7.41365486,9.13738019 L9.63379645,9.13738019 C9.69222123,9.13738019 9.72143362,9.1970181 9.69222123,9.22683706 L8.55293804,11.1948882 C8.52372565,11.2247071 8.46530088,11.2247071 8.46530088,11.1948882 L7.38444247,9.22683706 C7.35523008,9.1970181 7.38444247,9.13738019 7.41365486,9.13738019 L7.41365486,9.13738019 Z M7.38444247,14.7731629 L8.4068761,12.9840256 C8.43608849,12.9542066 8.49451327,12.9542066 8.49451327,12.9840256 L9.45852212,14.7731629 C9.48773451,14.8029819 9.45852212,14.8626198 9.40009734,14.8626198 L7.44286725,14.8626198 C7.41365486,14.8626198 7.38444247,14.8029819 7.38444247,14.7731629 L7.38444247,14.7731629 Z M11.8247257,17.3674121 L10.948354,15.7571885 C10.9191416,15.7273695 10.948354,15.6677316 11.0067788,15.6677316 L12.8179469,15.6677316 C12.8763717,15.6677316 12.9055841,15.7273695 12.8763717,15.7571885 L11.9123628,17.3674121 C11.8831504,17.3972311 11.8247257,17.3972311 11.8247257,17.3674121 L11.8247257,17.3674121 Z M15.5639115,12.8051118 L16.6447699,14.7731629 C16.6739823,14.8029819 16.6447699,14.8626198 16.5863451,14.8626198 L14.3662035,14.8626198 C14.3077788,14.8626198 14.2785664,14.8029819 14.3077788,14.7731629 L15.447062,12.8051118 C15.4762743,12.7752929 15.5346991,12.7752929 15.5639115,12.8051118 L15.5639115,12.8051118 Z" opacity=".6"/>
  </g>
</svg>
